src/assets/img/providers/betergaming.svg

<svg width="112" height="26" viewBox="0 0 112 26" fill="none" xmlns="http://www.w3.org/2000/svg">
<path fill-rule="evenodd" clip-rule="evenodd" d="M1.08687 -0.0761719H0.336105V0.674588V25.3284V26.0792H1.08687H110.913H111.663V25.3284V0.674588V-0.0761719H110.913H1.08687ZM1.83763 24.5777V1.42535H110.162V24.5777H1.83763ZM11.3808 12.0824H21.5345C22.1814 12.0824 22.6474 11.8847 22.6474 11.3074C22.6474 10.7421 22.1814 10.5444 21.5345 10.5444H11.3808V12.0824ZM25.7793 10.8739C25.7793 11.9125 25.0163 12.8194 23.6441 12.9113C25.0932 13.0032 26.2982 13.7784 26.2982 15.1725C26.2982 16.7106 24.8491 17.6834 22.5705 17.6834H14.5008L12.468 15.6199H21.91C22.6217 15.6199 23.0621 15.3719 23.0621 14.7789C23.0621 14.1858 22.6217 13.95 21.91 13.95H11.3808V17.6834H8.27438V8.47914H22.0517C24.3302 8.47914 25.7793 9.42595 25.7793 10.8739ZM57.1759 17.6834H54.0166V8.47914H64.2967V10.912H57.1759V17.6834ZM46.9078 10.912V8.47914H50.5347L52.9294 10.912H46.9078ZM83.0698 14.1477H66.1861V12.0165H83.0698V14.1477ZM83.0698 17.6834H66.1861V15.554H83.0698V17.6834ZM83.0698 10.6103H66.1861V8.47914H83.0698V10.6103ZM45.2897 14.1477H28.4061V12.0165H45.2897V14.1477ZM45.2897 17.6834H28.4061V15.554H45.2897V17.6834ZM45.2897 10.6103H28.4061V8.47914H45.2897V10.6103ZM101.002 14.6731C100.89 14.7095 100.785 14.7425 100.682 14.7702L103.55 17.6834H99.7741L97.1078 14.9748H89.6427L91.7527 12.8316H98.6696C99.4855 12.8316 100.068 12.594 100.068 11.805C100.068 11.0161 99.4855 10.7802 98.6696 10.7802H88.5554V17.6834H85.4235V8.47914H98.9296C101.349 8.47914 103.266 9.52995 103.266 11.727C103.266 13.2391 102.362 14.2188 101.002 14.6731Z" fill="#919EAB"/>
</svg>

<svg width="112" height="26" fill="none" xmlns="http://www.w3.org/2000/svg"><path fill-rule="evenodd" clip-rule="evenodd" d="M1.087-.076h-.75v26.155h111.326V-.076H1.087Zm.75 24.654V1.425h108.325v23.153H1.838Zm9.544-12.496h10.154c.646 0 1.112-.197 1.112-.775 0-.565-.466-.763-1.112-.763H11.38v1.538Zm14.398-1.208c0 1.038-.763 1.945-2.135 2.037 1.45.092 2.654.867 2.654 2.261 0 1.539-1.449 2.511-3.727 2.511H14.5l-2.033-2.063h9.442c.712 0 1.152-.248 1.152-.841s-.44-.829-1.152-.829H11.38v3.733H8.275V8.48h13.778c2.278 0 3.727.947 3.727 2.395Zm31.397 6.81h-3.16V8.478h10.28v2.433h-7.12v6.771Zm-10.268-6.772V8.479h3.627l2.394 2.433h-6.021Zm36.162 3.236H66.186v-2.131H83.07v2.13Zm0 3.535H66.186v-2.129H83.07v2.13Zm0-7.073H66.186V8.48H83.07v2.13Zm-37.78 3.538H28.406v-2.131H45.29v2.13Zm0 3.535H28.406v-2.129H45.29v2.13Zm0-7.073H28.406V8.48H45.29v2.13Zm55.712 4.063c-.112.037-.217.07-.32.097l2.868 2.913h-3.776l-2.666-2.708h-7.465l2.11-2.143h6.917c.816 0 1.398-.238 1.398-1.027 0-.789-.582-1.025-1.398-1.025H88.555v6.903h-3.132V8.48H98.93c2.419 0 4.336 1.051 4.336 3.248 0 1.512-.904 2.492-2.264 2.946Z" fill="#919EAB"/></svg>
